**kern	**silbe	**harmony	**phrase	**leadinstrument	**rhyme	**timestamp	**harte
*ICvox	*	*M4/4	*	*	*	*	*M4/4
*VRlead	*	*	*	*	*	*	*
*Hstimme	*	*	*	*	*	*	*
*D:	*	*D:	*	*	*	*	*D:
*M4/4	*	*	*	*	*	*	*
*clefG2	*	*	*	*	*	*	*
r;	.	1r;	.	r	.	0	N.C.
=1	=1	=1	=1	=1	=1	=1	=1
*>Letter>A	*>Letter>A	*>Letter>A	*>Letter>A	*>Letter>A	*>Letter>A	*>Letter>A	*>Letter>A
*>Label>Intro	*>Label>Intro	*>Label>Intro	*>Label>Intro	*>Label>Intro	*>Label>Intro	*>Label>Intro	*>Label>Intro
1r	.	2AM	newline	guitar	.	0.395	A:maj
.	.	2GM	.	guitar	.	1.107	G:maj
=2	=2	=2	=2	=2	=2	=2	=2
1r	.	1DM	.	guitar	.	1.819	D:maj
=3	=3	=3	=3	=3	=3	=3	=3
1r	.	2AM	.	guitar	.	3.243	A:maj
.	.	2DM	.	guitar	.	3.955	D:maj
=4	=4	=4	=4	=4	=4	=4	=4
1r	.	1GM	.	guitar	.	4.667	G:maj
=5	=5	=5	=5	=5	=5	=5	=5
1r	.	2GM	newline	guitar	.	6.092	G:maj
.	.	2AM	.	guitar	.	6.81	A:maj
=6	=6	=6	=6	=6	=6	=6	=6
1r	.	1DM	.	guitar	.	7.528	D:maj
=7	=7	=7	=7	=7	=7	=7	=7
1r	.	2GM	.	guitar	.	8.963	G:maj
.	.	2AM	.	guitar	.	9.681	A:maj
=8	=8	=8	=8	=8	=8	=8	=8
1r	.	1DM	newline	guitar	.	10.399	D:maj
=9	=9	=9	=9	=9	=9	=9	=9
1r	.	1DM	.	guitar	.	11.781	D:maj
=10	=10	=10	=10	=10	=10	=10	=10
*>Letter>B	*>Letter>B	*>Letter>B	*>Letter>B	*>Letter>B	*>Letter>B	*>Letter>B	*>Letter>B
*>Label>Verse	*>Label>Verse	*>Label>Verse	*>Label>Verse	*>Label>Verse	*>Label>Verse	*>Label>Verse	*>Label>Verse
8f#	Mid-	1DM	newline	voice	.	13.163	D:maj
[8f#	-night	.	.	.	A	.	.
2f#_	_	.	.	.	.	.	.
8f#]	_	.	.	.	.	.	.
8e	_	.	.	.	.	.	.
=11	=11	=11	=11	=11	=11	=11	=11
4d	_	1DM	.	voice	.	14.575	D:maj
4r	.	.	.	.	.	.	.
8r	.	.	.	.	.	.	.
8d	and	.	.	.	.	.	.
8d	I'm	.	.	.	.	.	.
8d	a-	.	.	.	.	.	.
=12	=12	=12	=12	=12	=12	=12	=12
8a	-wait-	1DM	.	voice	.	15.986	D:maj
8a	-ing	.	.	.	.	.	.
8a	on	.	.	.	.	.	.
8a	the	.	.	.	.	.	.
4a	twelve-	.	.	.	.	.	.
4f#	-oh-	.	.	.	.	.	.
=13	=13	=13	=13	=13	=13	=13	=13
4d	-five	1DM	.	voice	A	17.398	D:maj
4r	.	.	.	.	.	.	.
4r	.	.	.	.	.	.	.
8r	.	.	.	.	.	.	.
[8f#	Hop-	.	.	.	.	.	.
=14	=14	=14	=14	=14	=14	=14	=14
8f#]	_	1DM	newline	voice	.	18.809	D:maj
8f#	-ing	.	.	.	.	.	.
8f#	it-	.	.	.	.	.	.
8f#	-'ll	.	.	.	.	.	.
8f#	take	.	.	.	.	.	.
8f#	me	.	.	.	.	.	.
8f#	just	.	.	.	.	.	.
8f#	a	.	.	.	.	.	.
=15	=15	=15	=15	=15	=15	=15	=15
8f#	litt-	1DM	.	voice	.	20.224	D:maj
8f#	-le	.	.	.	.	.	.
8f#	far-	.	.	.	.	.	.
8f#	-ther	.	.	.	.	.	.
4e	down	.	.	.	.	.	.
8d	the	.	.	.	.	.	.
[8d	line	.	.	.	A	.	.
=16	=16	=16	=16	=16	=16	=16	=16
4d]	_	1GM	.	voice	.	21.638	G:maj
4r	.	.	.	.	.	.	.
2r	.	.	.	.	.	.	.
=17	=17	=17	=17	=17	=17	=17	=17
1r	.	1GM	.	voice	.	23.053	G:maj
=18	=18	=18	=18	=18	=18	=18	=18
8f#	Moon-	1DM	newline	voice	.	24.467	D:maj
[8f#	-light	.	.	.	A	.	.
2f#_	_	.	.	.	.	.	.
8f#]	_	.	.	.	.	.	.
8e	_	.	.	.	.	.	.
=19	=19	=19	=19	=19	=19	=19	=19
4d	_	1DM	.	voice	.	25.899	D:maj
4r	.	.	.	.	.	.	.
8r	.	.	.	.	.	.	.
8d	You're	.	.	.	.	.	.
8d	just	.	.	.	.	.	.
8d	a	.	.	.	.	.	.
=20	=20	=20	=20	=20	=20	=20	=20
8a	heart-	1DM	.	voice	.	27.332	D:maj
4.a	-ache	.	.	.	.	.	.
4a	in	.	.	.	.	.	.
4f#	dis-	.	.	.	.	.	.
=21	=21	=21	=21	=21	=21	=21	=21
4d	-guise	1DM	.	voice	A	28.764	D:maj
4r	.	.	.	.	.	.	.
4r	.	.	.	.	.	.	.
8d	Won't	.	.	.	.	.	.
8d	you	.	.	.	.	.	.
=22	=22	=22	=22	=22	=22	=22	=22
8f#	keep	1DM	newline	voice	.	30.196	D:maj
8f#	my	.	.	.	.	.	.
8f#	heart	.	.	.	.	.	.
8f#	from	.	.	.	.	.	.
8f#	break-	.	.	.	.	.	.
8f#	-ing	.	.	.	.	.	.
8f#	if	.	.	.	.	.	.
8f#	it's	.	.	.	.	.	.
=23	=23	=23	=23	=23	=23	=23	=23
8f#	on-	1DM	.	voice	.	31.607	D:maj
8f#	-ly	.	.	.	.	.	.
8f#	for	.	.	.	.	.	.
8f#	a	.	.	.	.	.	.
8f#	ver-	.	.	.	.	.	.
8e	-y	.	.	.	.	.	.
4d	short	.	.	.	.	.	.
=24	=24	=24	=24	=24	=24	=24	=24
4d	time	1GM	.	voice	A	33.017	G:maj
4r	.	.	.	.	.	.	.
2r	.	.	.	.	.	.	.
=25	=25	=25	=25	=25	=25	=25	=25
1r	.	1GM	.	voice	.	34.428	G:maj
=26	=26	=26	=26	=26	=26	=26	=26
*>Letter>A	*>Letter>A	*>Letter>A	*>Letter>A	*>Letter>A	*>Letter>A	*>Letter>A	*>Letter>A
*>Label>Chorus	*>Label>Chorus	*>Label>Chorus	*>Label>Chorus	*>Label>Chorus	*>Label>Chorus	*>Label>Chorus	*>Label>Chorus
4a	Playin'	2AM	newline	voice	.	35.838	A:maj
8a	with	.	.	.	.	.	.
8a	the	.	.	.	.	.	.
4g	queen	.	.	.	.	.	.
8g	of	2GM	.	voice	.	36.547	G:maj
[8f#	hearts	.	.	.	B	.	.
=27	=27	=27	=27	=27	=27	=27	=27
8f#]	_	1DM	.	voice	.	37.257	D:maj
8r	.	.	.	.	.	.	.
4r	.	.	.	.	.	.	.
2r	.	.	.	.	.	.	.
=28	=28	=28	=28	=28	=28	=28	=28
8a	Know-	2AM	.	voice	.	38.676	A:maj
8a	-in'	.	.	.	.	.	.
8a	it	.	.	.	.	.	.
8a	ain't	.	.	.	.	.	.
8d	reall-	2DM	.	voice	.	39.385	D:maj
4d	-y	.	.	.	.	.	.
[8g	smart	.	.	.	B	.	.
=29	=29	=29	=29	=29	=29	=29	=29
8g]	_	1GM	.	voice	.	40.095	G:maj
8r	.	.	.	.	.	.	.
2r	.	.	.	.	.	.	.
8r	.	.	.	.	.	.	.
8f#	The	.	.	.	.	.	.
=30	=30	=30	=30	=30	=30	=30	=30
8g	Jok-	2GM	newline	voice	.	41.514	G:maj
8g	-er	.	.	.	.	.	.
8g	ain't	.	.	.	.	.	.
8g	the	.	.	.	.	.	.
4a	on-	2AM	.	voice	.	42.221	A:maj
8a	-ly	.	.	.	.	.	.
[8a	fool	.	.	.	C	.	.
=31	=31	=31	=31	=31	=31	=31	=31
4a]	_	1DM	.	voice	.	42.927	D:maj
4f#	_	.	.	.	.	.	.
4d	_	.	.	.	.	.	.
8r	.	.	.	.	.	.	.
8d	who'd	.	.	.	.	.	.
=32	=32	=32	=32	=32	=32	=32	=32
4g	do	2GM	.	voice	.	44.341	G:maj
8g	an-	.	.	.	.	.	.
8g	-y-	.	.	.	.	.	.
4c#	-thing	2AM	.	voice	.	45.047	A:maj
8c#	for	.	.	.	.	.	.
[8d	you	.	.	.	C	.	.
=33	=33	=33	=33	=33	=33	=33	=33
4d]	_	1DM	.	voice	.	45.754	D:maj
4r	.	.	.	.	.	.	.
2r	.	.	.	.	.	.	.
=34	=34	=34	=34	=34	=34	=34	=34
4a	Layin'	2AM	newline	voice	.	47.168	A:maj
8a	out	.	.	.	.	.	.
8a	a-	.	.	.	.	.	.
4g	-no-	2GM	.	voice	.	47.876	G:maj
8g	-ther	.	.	.	.	.	.
[8g	lie	.	.	.	A	.	.
=35	=35	=35	=35	=35	=35	=35	=35
8g]	_	1DM	.	voice	.	48.584	D:maj
4f#	_	.	.	.	.	.	.
8r	.	.	.	.	.	.	.
2r	.	.	.	.	.	.	.
=36	=36	=36	=36	=36	=36	=36	=36
8a	Think-	2AM	.	voice	.	50.001	A:maj
8a	-in'	.	.	.	.	.	.
8a	'bout	.	.	.	.	.	.
8a	a	.	.	.	.	.	.
4d	life	2DM	.	voice	.	50.71	D:maj
8d	of	.	.	.	.	.	.
[8g	crime	.	.	.	A	.	.
=37	=37	=37	=37	=37	=37	=37	=37
8g]	_	1GM	.	voice	.	51.418	G:maj
8r	.	.	.	.	.	.	.
2r	.	.	.	.	.	.	.
8r	.	.	.	.	.	.	.
8f#	'Cause	.	.	.	.	.	.
=38	=38	=38	=38	=38	=38	=38	=38
4g	that's	2GM	newline	voice	.	52.835	G:maj
8g	what	.	.	.	.	.	.
8g	I'll	.	.	.	.	.	.
4a	have	2AM	.	voice	.	53.546	A:maj
8a	to	.	.	.	.	.	.
[8a	do	.	.	.	C	.	.
=39	=39	=39	=39	=39	=39	=39	=39
4a]	_	1DM	.	voice	.	54.257	D:maj
4f#	_	.	.	.	.	.	.
4d	_	.	.	.	.	.	.
8r	.	.	.	.	.	.	.
8d	to	.	.	.	.	.	.
=40	=40	=40	=40	=40	=40	=40	=40
4g	keep	2GM	.	voice	.	55.68	G:maj
8g	me	.	.	.	.	.	.
8g	a-	.	.	.	.	.	.
4c#	-way	2AM	.	voice	.	56.391	A:maj
8c#	from	.	.	.	.	.	.
[8d	you	.	.	.	C	.	.
=41	=41	=41	=41	=41	=41	=41	=41
4d]	_	1DM	newline	guitar	.	57.102	D:maj
4r	.	.	.	.	.	.	.
2r	.	.	.	.	.	.	.
=42	=42	=42	=42	=42	=42	=42	=42
1r	.	1DM	.	guitar	.	58.525	D:maj
=43	=43	=43	=43	=43	=43	=43	=43
*>Letter>B	*>Letter>B	*>Letter>B	*>Letter>B	*>Letter>B	*>Letter>B	*>Letter>B	*>Letter>B
*>Label>Verse	*>Label>Verse	*>Label>Verse	*>Label>Verse	*>Label>Verse	*>Label>Verse	*>Label>Verse	*>Label>Verse
8f#	Hon-	1DM	newline	voice	.	59.947	D:maj
[8f#	-ey	.	.	.	.	.	.
2f#_	_	.	.	.	.	.	.
8f#]	_	.	.	.	.	.	.
8e	_	.	.	.	.	.	.
=44	=44	=44	=44	=44	=44	=44	=44
4d	_	1DM	.	voice	.	61.367	D:maj
4r	.	.	.	.	.	.	.
8r	.	.	.	.	.	.	.
4r	.	.	.	.	.	.	.
8d	You	.	.	.	.	.	.
=45	=45	=45	=45	=45	=45	=45	=45
8a	know	1DM	.	voice	.	62.786	D:maj
4.a	it	.	.	.	.	.	.
4a	makes	.	.	.	.	.	.
4f#	you	.	.	.	.	.	.
=46	=46	=46	=46	=46	=46	=46	=46
4d	mad	1DM	.	voice	D	64.206	D:maj
4r	.	.	.	.	.	.	.
4r	.	.	.	.	.	.	.
8e	Why	.	.	.	.	.	.
8d	is	.	.	.	.	.	.
=47	=47	=47	=47	=47	=47	=47	=47
8f#	ev-	1DM	newline	voice	.	65.626	D:maj
8f#	-ery-	.	.	.	.	.	.
8f#	-bod-	.	.	.	.	.	.
8f#	-y	.	.	.	.	.	.
8f#	tell-	.	.	.	.	.	.
8f#	-in	.	.	.	.	.	.
8f#	ev-	.	.	.	.	.	.
8f#	-ery-	.	.	.	.	.	.
=48	=48	=48	=48	=48	=48	=48	=48
8f#	-bod-	1DM	.	voice	.	67.035	D:maj
8f#	-y	.	.	.	.	.	.
4a	what	.	.	.	.	.	.
8f#	you	.	.	.	.	.	.
4e	have	.	.	.	.	.	.
[8d	done	.	.	.	E	.	.
=49	=49	=49	=49	=49	=49	=49	=49
4d]	_	1GM	.	voice	.	68.444	G:maj
4r	.	.	.	.	.	.	.
2r	.	.	.	.	.	.	.
=50	=50	=50	=50	=50	=50	=50	=50
1r	.	1GM	.	voice	.	69.853	G:maj
=51	=51	=51	=51	=51	=51	=51	=51
8f#	Bab-	1DM	newline	voice	.	71.263	D:maj
[8f#	-y	.	.	.	.	.	.
2f#_	_	.	.	.	.	.	.
8f#]	_	.	.	.	.	.	.
8e	_	.	.	.	.	.	.
=52	=52	=52	=52	=52	=52	=52	=52
4d	_	1DM	.	voice	.	72.684	D:maj
4r	.	.	.	.	.	.	.
8r	.	.	.	.	.	.	.
4r	.	.	.	.	.	.	.
8d	I	.	.	.	.	.	.
=53	=53	=53	=53	=53	=53	=53	=53
8f#	know	1DM	.	voice	.	74.105	D:maj
4.f#	it	.	.	.	.	.	.
4f#	makes	.	.	.	.	.	.
4e	you	.	.	.	.	.	.
=54	=54	=54	=54	=54	=54	=54	=54
4d	sad	1DM	.	voice	D	75.527	D:maj
4r	.	.	.	.	.	.	.
8r	.	.	.	.	.	.	.
8d	But	.	.	.	.	.	.
8e	when	.	.	.	.	.	.
8d	they're	.	.	.	.	.	.
=55	=55	=55	=55	=55	=55	=55	=55
8f#	hand-	1DM	newline	voice	.	76.948	D:maj
8f#	-ing	.	.	.	.	.	.
8f#	out	.	.	.	.	.	.
8f#	the	.	.	.	.	.	.
8f#	heart-	.	.	.	.	.	.
8f#	-aches	.	.	.	.	.	.
8f#	you	.	.	.	.	.	.
[8f#	know	.	.	.	.	.	.
=56	=56	=56	=56	=56	=56	=56	=56
8f#]	_	1DM	.	voice	.	78.362	D:maj
8f#	you	.	.	.	.	.	.
8f#	got	.	.	.	.	.	.
8f#	to	.	.	.	.	.	.
4e	have	.	.	.	.	.	.
8d	you	.	.	.	.	.	.
[8d	some	.	.	.	E	.	.
=57	=57	=57	=57	=57	=57	=57	=57
8d]	_	1GM	.	voice	.	79.776	G:maj
8r	.	.	.	.	.	.	.
4r	.	.	.	.	.	.	.
2r	.	.	.	.	.	.	.
=58	=58	=58	=58	=58	=58	=58	=58
1r	.	1GM	.	voice	.	81.19	G:maj
=59	=59	=59	=59	=59	=59	=59	=59
*>Letter>A	*>Letter>A	*>Letter>A	*>Letter>A	*>Letter>A	*>Letter>A	*>Letter>A	*>Letter>A
*>Label>Chorus	*>Label>Chorus	*>Label>Chorus	*>Label>Chorus	*>Label>Chorus	*>Label>Chorus	*>Label>Chorus	*>Label>Chorus
4a	Playin'	2AM	newline	voice	.	82.604	A:maj
8a	with	.	.	.	.	.	.
8a	the	.	.	.	.	.	.
4g	queen	.	.	.	.	.	.
8g	of	2GM	.	voice	.	83.308	G:maj
[8f#	hearts	.	.	.	B	.	.
=60	=60	=60	=60	=60	=60	=60	=60
8f#]	_	1DM	.	voice	.	84.011	D:maj
8r	.	.	.	.	.	.	.
4r	.	.	.	.	.	.	.
2r	.	.	.	.	.	.	.
=61	=61	=61	=61	=61	=61	=61	=61
8a	Know-	2AM	.	voice	.	85.418	A:maj
8a	-in'	.	.	.	.	.	.
8a	it	.	.	.	.	.	.
8a	ain't	.	.	.	.	.	.
8d	reall-	2DM	.	voice	.	86.122	D:maj
4d	-y	.	.	.	.	.	.
[8g	smart	.	.	.	B	.	.
=62	=62	=62	=62	=62	=62	=62	=62
8g]	_	1GM	.	voice	.	86.825	G:maj
8r	.	.	.	.	.	.	.
2r	.	.	.	.	.	.	.
4r	.	.	.	.	.	.	.
=63	=63	=63	=63	=63	=63	=63	=63
8g	Jo-	2GM	newline	voice	.	88.232	G:maj
8g	-ker	.	.	.	.	.	.
8g	ain't	.	.	.	.	.	.
8g	the	.	.	.	.	.	.
4a	on-	2AM	.	voice	.	88.951	A:maj
8a	-ly	.	.	.	.	.	.
[8a	fool	.	.	.	C	.	.
=64	=64	=64	=64	=64	=64	=64	=64
4a]	_	1DM	.	voice	.	89.67	D:maj
4f#	_	.	.	.	.	.	.
4d	_	.	.	.	.	.	.
8r	.	.	.	.	.	.	.
8d	who'd	.	.	.	.	.	.
=65	=65	=65	=65	=65	=65	=65	=65
4g	do	2GM	.	voice	.	91.107	G:maj
8g	an-	.	.	.	.	.	.
8g	-y-	.	.	.	.	.	.
4c#	-thing	2AM	.	voice	.	91.826	A:maj
8c#	for	.	.	.	.	.	.
[8d	you	.	.	.	C	.	.
=66	=66	=66	=66	=66	=66	=66	=66
4d]	_	1DM	.	voice	.	92.545	D:maj
4r	.	.	.	.	.	.	.
2r	.	.	.	.	.	.	.
=67	=67	=67	=67	=67	=67	=67	=67
4a	Layin'	2AM	newline	voice	.	93.983	A:maj
8a	out	.	.	.	.	.	.
8a	a	.	.	.	.	.	.
4g	no-	2GM	.	voice	.	94.688	G:maj
8g	-ther	.	.	.	.	.	.
[8g	lie	.	.	.	A	.	.
=68	=68	=68	=68	=68	=68	=68	=68
8g]	_	1DM	.	voice	.	95.393	D:maj
4f#	_	.	.	.	.	.	.
8r	.	.	.	.	.	.	.
2r	.	.	.	.	.	.	.
=69	=69	=69	=69	=69	=69	=69	=69
8a	Think-	2AM	.	voice	.	96.803	A:maj
8a	-in'	.	.	.	.	.	.
8a	'bout	.	.	.	.	.	.
8a	a	.	.	.	.	.	.
4d	life	2DM	.	voice	.	97.508	D:maj
8d	of	.	.	.	.	.	.
[8g	crime	.	.	.	A	.	.
=70	=70	=70	=70	=70	=70	=70	=70
8g]	_	1GM	.	voice	.	98.213	G:maj
8r	.	.	.	.	.	.	.
2r	.	.	.	.	.	.	.
8r	.	.	.	.	.	.	.
8f#	'Cause	.	.	.	.	.	.
=71	=71	=71	=71	=71	=71	=71	=71
4g	that's	2GM	newline	voice	.	99.623	G:maj
8g	what	.	.	.	.	.	.
8g	I'll	.	.	.	.	.	.
4a	have	2AM	.	voice	.	100.334	A:maj
8a	to	.	.	.	.	.	.
[8a	do	.	.	.	C	.	.
=72	=72	=72	=72	=72	=72	=72	=72
4a]	_	1DM	.	voice	.	101.045	D:maj
4f#	_	.	.	.	.	.	.
4d	_	.	.	.	.	.	.
8r	.	.	.	.	.	.	.
8d	to	.	.	.	.	.	.
=73	=73	=73	=73	=73	=73	=73	=73
4g	keep	2GM	.	voice	.	102.467	G:maj
8g	me	.	.	.	.	.	.
8g	a-	.	.	.	.	.	.
4c#	-way	2AM	.	voice	.	103.178	A:maj
8c#	from	.	.	.	.	.	.
[8d	you	.	.	.	C	.	.
=74	=74	=74	=74	=74	=74	=74	=74
4d]	_	1DM	.	voice	.	103.889	D:maj
4r	.	.	.	.	.	.	.
2r	.	.	.	.	.	.	.
=75	=75	=75	=75	=75	=75	=75	=75
*>Letter>A2	*>Letter>A2	*>Letter>A2	*>Letter>A2	*>Letter>A2	*>Letter>A2	*>Letter>A2	*>Letter>A2
*>Label>Solo	*>Label>Solo	*>Label>Solo	*>Label>Solo	*>Label>Solo	*>Label>Solo	*>Label>Solo	*>Label>Solo
*E:	*	*E:	*E:	*E:	*	*E:	*E:
1r	.	2BM	newline	guitar	.	105.311	B:maj
.	.	2AM	.	guitar	.	106.013	A:maj
=76	=76	=76	=76	=76	=76	=76	=76
1r	.	1EM	.	guitar	.	106.714	E:maj
=77	=77	=77	=77	=77	=77	=77	=77
1r	.	2BM	.	guitar	.	108.117	B:maj
.	.	2EM	.	guitar	.	108.819	E:maj
=78	=78	=78	=78	=78	=78	=78	=78
1r	.	1AM	.	guitar	.	109.52	A:maj
=79	=79	=79	=79	=79	=79	=79	=79
1r	.	2AM	newline	guitar	.	110.923	A:maj
.	.	2BM	.	guitar	.	111.641	B:maj
=80	=80	=80	=80	=80	=80	=80	=80
1r	.	1EM	.	guitar	.	112.358	E:maj
=81	=81	=81	=81	=81	=81	=81	=81
1r	.	2AM	.	guitar	.	113.793	A:maj
.	.	2BM	.	guitar	.	114.51	B:maj
=82	=82	=82	=82	=82	=82	=82	=82
1r	.	1EM	.	guitar	.	115.228	E:maj
=83	=83	=83	=83	=83	=83	=83	=83
1r	.	2AM	newline	guitar	.	116.663	A:maj
.	.	2BM	.	guitar	.	117.361	B:maj
=84	=84	=84	=84	=84	=84	=84	=84
1r	.	1EM	.	guitar	.	118.06	E:maj
=85	=85	=85	=85	=85	=85	=85	=85
*>Letter>B	*>Letter>B	*>Letter>B	*>Letter>B	*>Letter>B	*>Letter>B	*>Letter>B	*>Letter>B
*>Label>Verse	*>Label>Verse	*>Label>Verse	*>Label>Verse	*>Label>Verse	*>Label>Verse	*>Label>Verse	*>Label>Verse
*D:	*	*D:	*D:	*D:	*	*D:	*D:
8e	Lo-	1DM	newline	voice	.	119.456	D:maj
[8f#	-vers	.	.	.	.	.	.
2f#_	_	.	.	.	.	.	.
8f#]	_	.	.	.	.	.	.
8e	_	.	.	.	.	.	.
=86	=86	=86	=86	=86	=86	=86	=86
4d	_	1DM	.	voice	.	120.879	D:maj
4r	.	.	.	.	.	.	.
8r	.	.	.	.	.	.	.
4r	.	.	.	.	.	.	.
8d	I	.	.	.	.	.	.
=87	=87	=87	=87	=87	=87	=87	=87
8f#	know	1DM	.	voice	.	122.301	D:maj
4.f#	you've	.	.	.	.	.	.
4f#	had	.	.	.	.	.	.
4e	a	.	.	.	.	.	.
=88	=88	=88	=88	=88	=88	=88	=88
4d	few	1DM	.	voice	C	123.723	D:maj
4r	.	.	.	.	.	.	.
8r	.	.	.	.	.	.	.
8d	But	.	.	.	.	.	.
8e	hide	.	.	.	.	.	.
8d	your	.	.	.	.	.	.
=89	=89	=89	=89	=89	=89	=89	=89
8f#	heart	1DM	newline	voice	.	125.146	D:maj
8f#	be-	.	.	.	.	.	.
8f#	-neath	.	.	.	.	.	.
8f#	the	.	.	.	.	.	.
8f#	co-	.	.	.	.	.	.
8f#	-vers	.	.	.	.	.	.
8f#	and	.	.	.	.	.	.
[8f#	tell	.	.	.	.	.	.
=90	=90	=90	=90	=90	=90	=90	=90
8f#]	_	1DM	.	voice	.	126.555	D:maj
8f#	'em	.	.	.	.	.	.
8f#	they're	.	.	.	.	.	.
8f#	the	.	.	.	.	.	.
4e	on-	.	.	.	.	.	.
8d	-ly	.	.	.	.	.	.
[8d	one	.	.	.	F	.	.
=91	=91	=91	=91	=91	=91	=91	=91
4d]	_	1GM	.	voice	.	127.964	G:maj
4r	.	.	.	.	.	.	.
2r	.	.	.	.	.	.	.
=92	=92	=92	=92	=92	=92	=92	=92
1r	.	1GM	.	voice	.	129.373	G:maj
=93	=93	=93	=93	=93	=93	=93	=93
8e	O-	1DM	newline	voice	.	130.783	D:maj
[8f#	-thers	.	.	.	.	.	.
2f#_	_	.	.	.	.	.	.
8f#]	_	.	.	.	.	.	.
8e	_	.	.	.	.	.	.
=94	=94	=94	=94	=94	=94	=94	=94
4d	_	1DM	.	voice	.	132.207	D:maj
4r	.	.	.	.	.	.	.
8r	.	.	.	.	.	.	.
8d	They	.	.	.	.	.	.
8e	just	.	.	.	.	.	.
8d	know	.	.	.	.	.	.
=95	=95	=95	=95	=95	=95	=95	=95
8f#	what	1DM	.	voice	.	133.63	D:maj
4.f#	I'm	.	.	.	.	.	.
4f#	go-	.	.	.	.	.	.
4e	-ing	.	.	.	.	.	.
=96	=96	=96	=96	=96	=96	=96	=96
4d	through	1DM	.	voice	C	135.054	D:maj
4r	.	.	.	.	.	.	.
8r	.	.	.	.	.	.	.
8d	And	.	.	.	.	.	.
8e	it's	.	.	.	.	.	.
8d	a-	.	.	.	.	.	.
=97	=97	=97	=97	=97	=97	=97	=97
8f#	-hard	1DM	newline	voice	.	136.478	D:maj
8f#	to	.	.	.	.	.	.
8f#	be	.	.	.	.	.	.
8f#	a	.	.	.	.	.	.
8f#	lo-	.	.	.	.	.	.
8f#	-ver	.	.	.	.	.	.
8f#	when	.	.	.	.	.	.
8f#	you	.	.	.	.	.	.
=98	=98	=98	=98	=98	=98	=98	=98
8f#	say	1DM	.	voice	.	137.89	D:maj
8f#	you're	.	.	.	.	.	.
8f#	on-	.	.	.	.	.	.
8f#	-ly	.	.	.	.	.	.
8e	in	.	.	.	.	.	.
8d	it	.	.	.	.	.	.
8d	for	.	.	.	.	.	.
[8d	fun	.	.	.	F	.	.
=99	=99	=99	=99	=99	=99	=99	=99
4d]	_	1GM	.	voice	.	139.301	G:maj
4r	.	.	.	.	.	.	.
2r	.	.	.	.	.	.	.
=100	=100	=100	=100	=100	=100	=100	=100
1r	.	1GM	.	voice	.	140.713	G:maj
=101	=101	=101	=101	=101	=101	=101	=101
*>Letter>A	*>Letter>A	*>Letter>A	*>Letter>A	*>Letter>A	*>Letter>A	*>Letter>A	*>Letter>A
*>Label>Chorus	*>Label>Chorus	*>Label>Chorus	*>Label>Chorus	*>Label>Chorus	*>Label>Chorus	*>Label>Chorus	*>Label>Chorus
4a	Playin'	2AM	newline	voice	.	142.124	A:maj
8a	with	.	.	.	.	.	.
8a	the	.	.	.	.	.	.
4g	queen	.	.	.	.	.	.
8g	of	2GM	.	voice	.	142.833	G:maj
[8f#	hearts	.	.	.	B	.	.
=102	=102	=102	=102	=102	=102	=102	=102
8f#]	_	1DM	.	voice	.	143.541	D:maj
8r	.	.	.	.	.	.	.
4r	.	.	.	.	.	.	.
2r	.	.	.	.	.	.	.
=103	=103	=103	=103	=103	=103	=103	=103
8a	Know-	2AM	.	voice	.	144.958	A:maj
8a	-in'	.	.	.	.	.	.
8a	it	.	.	.	.	.	.
8a	ain't	.	.	.	.	.	.
8d	reall-	2DM	.	voice	.	145.667	D:maj
4d	-y	.	.	.	.	.	.
[8g	smart	.	.	.	B	.	.
=104	=104	=104	=104	=104	=104	=104	=104
8g]	_	1GM	.	voice	.	146.376	G:maj
8r	.	.	.	.	.	.	.
2r	.	.	.	.	.	.	.
8r	.	.	.	.	.	.	.
8f#	The	.	.	.	.	.	.
=105	=105	=105	=105	=105	=105	=105	=105
8g	Jok-	2GM	newline	voice	.	147.793	G:maj
8g	-er	.	.	.	.	.	.
8g	ain't	.	.	.	.	.	.
8g	the	.	.	.	.	.	.
4a	on-	2AM	.	voice	.	148.502	A:maj
8a	-ly	.	.	.	.	.	.
[8a	fool	.	.	.	C	.	.
=106	=106	=106	=106	=106	=106	=106	=106
4a]	_	1DM	.	voice	.	149.211	D:maj
4f#	_	.	.	.	.	.	.
4d	_	.	.	.	.	.	.
8r	.	.	.	.	.	.	.
8d	who'd	.	.	.	.	.	.
=107	=107	=107	=107	=107	=107	=107	=107
4g	do	2GM	.	voice	.	150.63	G:maj
8g	an-	.	.	.	.	.	.
8g	-y-	.	.	.	.	.	.
4c#	-thing	2AM	.	voice	.	151.339	A:maj
8c#	for	.	.	.	.	.	.
[8d	you	.	.	.	C	.	.
=108	=108	=108	=108	=108	=108	=108	=108
4d]	_	1DM	.	voice	.	152.048	D:maj
4r	.	.	.	.	.	.	.
2r	.	.	.	.	.	.	.
=109	=109	=109	=109	=109	=109	=109	=109
*>Letter>A	*>Letter>A	*>Letter>A	*>Letter>A	*>Letter>A	*>Letter>A	*>Letter>A	*>Letter>A
*>Label>Chorus	*>Label>Chorus	*>Label>Chorus	*>Label>Chorus	*>Label>Chorus	*>Label>Chorus	*>Label>Chorus	*>Label>Chorus
*E:	*	*E:	*E:	*E:	*	*E:	*E:
4b	Playin'	1N	newline	voice	.	153.467	N.C.
8b	with	.	.	.	.	.	.
8b	the	.	.	.	.	.	.
4a	queen	.	.	.	.	.	.
8a	of	.	.	.	.	.	.
[8g#	hearts	.	.	.	B	.	.
=110	=110	=110	=110	=110	=110	=110	=110
8g#]	_	1N	.	voice	.	154.888	N.C.
8r	.	.	.	.	.	.	.
4r	.	.	.	.	.	.	.
2r	.	.	.	.	.	.	.
=111	=111	=111	=111	=111	=111	=111	=111
8b	Know-	1N	.	voice	.	156.309	N.C.
8b	-in'	.	.	.	.	.	.
8b	it	.	.	.	.	.	.
8b	ain't	.	.	.	.	.	.
8e	reall-	.	.	.	.	.	.
4e	-y	.	.	.	.	.	.
[8a	smart	.	.	.	B	.	.
=112	=112	=112	=112	=112	=112	=112	=112
8a]	_	1AM	.	voice	.	157.73	A:maj
8r	.	.	.	.	.	.	.
2r	.	.	.	.	.	.	.
8r	.	.	.	.	.	.	.
8g#	The	.	.	.	.	.	.
=113	=113	=113	=113	=113	=113	=113	=113
8a	Jo-	2AM	newline	voice	.	159.151	A:maj
8a	-ker	.	.	.	.	.	.
8a	ain't	.	.	.	.	.	.
8a	the	.	.	.	.	.	.
4b	on-	2BM	.	voice	.	159.859	B:maj
8b	-ly	.	.	.	.	.	.
[8b	fool	.	.	.	C	.	.
=114	=114	=114	=114	=114	=114	=114	=114
4b]	_	1EM	.	voice	.	160.567	E:maj
4g#	_	.	.	.	.	.	.
4e	_	.	.	.	.	.	.
8r	.	.	.	.	.	.	.
8e	who'd	.	.	.	.	.	.
=115	=115	=115	=115	=115	=115	=115	=115
4a	do	2AM	.	voice	.	161.984	A:maj
8a	an-	.	.	.	.	.	.
8a	-y-	.	.	.	.	.	.
4d#	-thing	2BM	.	voice	.	162.692	B:maj
8d#	for	.	.	.	.	.	.
[8e	you	.	.	.	C	.	.
=116	=116	=116	=116	=116	=116	=116	=116
4e]	_	1EM	.	voice	.	163.401	E:maj
4r	.	.	.	.	.	.	.
2r	.	.	.	.	.	.	.
=117	=117	=117	=117	=117	=117	=117	=117
4b	Layin'	2BM	newline	voice	.	164.818	B:maj
8b	out	.	.	.	.	.	.
8b	a-	.	.	.	.	.	.
4a	-no-	2AM	.	voice	.	165.524	A:maj
8a	-ther	.	.	.	.	.	.
[8a	lie	.	.	.	A	.	.
=118	=118	=118	=118	=118	=118	=118	=118
8a]	_	1EM	.	voice	.	166.231	E:maj
4g#	_	.	.	.	.	.	.
8r	.	.	.	.	.	.	.
2r	.	.	.	.	.	.	.
=119	=119	=119	=119	=119	=119	=119	=119
8b	Think-	2BM	.	voice	.	167.645	B:maj
8b	-in'	.	.	.	.	.	.
8b	'bout	.	.	.	.	.	.
8b	a	.	.	.	.	.	.
4e	life	2EM	.	voice	.	168.352	E:maj
8e	of	.	.	.	.	.	.
[8a	crime	.	.	.	A	.	.
=120	=120	=120	=120	=120	=120	=120	=120
8a]	_	1AM	.	voice	.	169.059	A:maj
8r	.	.	.	.	.	.	.
2r	.	.	.	.	.	.	.
8r	.	.	.	.	.	.	.
8g#	'Cause	.	.	.	.	.	.
=121	=121	=121	=121	=121	=121	=121	=121
4a	that's	2AM	newline	voice	.	170.473	A:maj
8a	what	.	.	.	.	.	.
8a	I'll	.	.	.	.	.	.
4b	have	2BM	.	voice	.	171.178	B:maj
8b	to	.	.	.	.	.	.
[8b	do	.	.	.	C	.	.
=122	=122	=122	=122	=122	=122	=122	=122
4b]	_	1EM	.	voice	.	171.883	E:maj
4g#	_	.	.	.	.	.	.
4e	_	.	.	.	.	.	.
8r	.	.	.	.	.	.	.
8e	to	.	.	.	.	.	.
=123	=123	=123	=123	=123	=123	=123	=123
4a	keep	2AM	.	voice	.	173.293	A:maj
8a	me	.	.	.	.	.	.
8a	a-	.	.	.	.	.	.
4d#	-way	2BM	.	voice	.	173.998	B:maj
8d#	from	.	.	.	.	.	.
[8e	you	.	.	.	C	.	.
=124	=124	=124	=124	=124	=124	=124	=124
4e]	_	1EM	.	voice	.	174.703	E:maj
4r	.	.	.	.	.	.	.
2r	.	.	.	.	.	.	.
=125	=125	=125	=125	=125	=125	=125	=125
*>Letter>C	*>Letter>C	*>Letter>C	*>Letter>C	*>Letter>C	*>Letter>C	*>Letter>C	*>Letter>C
*>Label>Outro	*>Label>Outro	*>Label>Outro	*>Label>Outro	*>Label>Outro	*>Label>Outro	*>Label>Outro	*>Label>Outro
1r	.	2BM	newline	voice	.	176.114	B:maj
.	.	2AM	.	voice	.	176.828	A:maj
=126	=126	=126	=126	=126	=126	=126	=126
1r	.	1EM	.	voice	.	177.542	E:maj
=127	=127	=127	=127	=127	=127	=127	=127
4b	Playin'	2BM	.	voice	.	178.969	B:maj
8b	with	.	.	.	.	.	.
8b	the	.	.	.	.	.	.
4a	queen	.	.	.	.	.	.
8a	of	2AM	.	voice	.	179.683	A:maj
[8g#	hearts	.	.	.	B	.	.
=128	=128	=128	=128	=128	=128	=128	=128
8g#]	_	1EM	.	voice	.	180.397	E:maj
8r	.	.	.	.	.	.	.
4r	.	.	.	.	.	.	.
2r	.	.	.	.	.	.	.
=129	=129	=129	=129	=129	=129	=129	=129
1r	.	2BM	newline	voice	.	181.825	B:maj
.	.	2AM	.	voice	.	182.527	A:maj
=130	=130	=130	=130	=130	=130	=130	=130
1r	.	1EM	.	voice	.	183.23	E:maj
=131	=131	=131	=131	=131	=131	=131	=131
4b	Playin'	2BM	.	voice	.	184.634	B:maj
8b	with	.	.	.	.	.	.
8b	the	.	.	.	.	.	.
4a	queen	.	.	.	.	.	.
8a	of	2AM	.	voice	.	185.337	A:maj
[8g#	hearts	.	.	.	B	.	.
=132	=132	=132	=132	=132	=132	=132	=132
8g#]	_	1EM	.	voice	.	186.039	E:maj
8r	.	.	.	.	.	.	.
4r	.	.	.	.	.	.	.
2r	.	.	.	.	.	.	.
=133	=133	=133	=133	=133	=133	=133	=133
*>Label>>Fadeout	*>Label>>Fadeout	*>Label>>Fadeout	*>Label>>Fadeout	*>Label>>Fadeout	*>Label>>Fadeout	*>Label>>Fadeout	*>Label>>Fadeout
1r	.	2BM	newline	voice	.	187.444	B:maj
.	.	2AM	.	voice	.	188.155	A:maj
=134	=134	=134	=134	=134	=134	=134	=134
1r	.	1EM	.	voice	.	188.866	E:maj
=135	=135	=135	=135	=135	=135	=135	=135
4b	Playin'	2BM	.	voice	.	190.288	B:maj
8b	with	.	.	.	.	.	.
8b	the	.	.	.	.	.	.
4a	queen	.	.	.	.	.	.
8a	of	2AM	.	voice	.	191	A:maj
[8g#	hearts	.	.	.	.	.	.
=136	=136	=136	=136	=136	=136	=136	=136
8g#]	_	1EM	.	voice	.	191.711	E:maj
8r	.	.	.	.	.	.	.
4r	.	.	.	.	.	.	.
2r	.	.	.	.	.	.	.
=137	=137	=137	=137	=137	=137	=137	=137
1r	.	2BM	newline	voice	.	193.133	B:maj
.	.	2AM	.	voice	.	193.841	A:maj
=138	=138	=138	=138	=138	=138	=138	=138
1r	.	1EM	.	voice	.	194.549	E:maj
=139	=139	=139	=139	=139	=139	=139	=139
4b	Playin'	2BM	.	voice	.	195.965	B:maj
8b	with	.	.	.	.	.	.
8b	the	.	.	.	.	.	.
4a	queen	.	.	.	.	.	.
8a	of	2AM	.	voice	.	196.672	A:maj
[8g#	hearts	.	.	.	.	.	.
=140	=140	=140	=140	=140	=140	=140	=140
8g#]	_	1EM	.	voice	.	197.38	E:maj
8r	.	.	.	.	.	.	.
4r	.	.	.	.	.	.	.
2r	.	.	.	.	.	.	.
r;	.	1r;	.	r	.	204.568	N.C.
r;	.	1r;	.	r	.	209.868	N.C.
*-	*-	*-	*-	*-	*-	*-	*-
!!!BillboardChartDate: 1981/07/04
!!!BillboardPeak: 2
!!!BillboardWeeksOnChart: 27
!!!COC: Juice Newton
!!!ENC: Nathaniel Condit-Schultz
!!!EST: Awating manual error checking and editing.
!!!OTL: Queen Of Hearts
!!!RDF**chordsym: original McGill chord annotation + (implied pitch class set, with bass pitch in first position)
!!!RDF**harmony: **recip + pitch class of root + harmonic quality
!!!RDF**leadinstrument: original McGill primary instrumentation annotation
!!!RDF**phrase: newline = linebreak in original McGill transcription
!!!RDF**timestamp: McGill audio timestamp in seconds
!!!RDT: 2017/01/12/
!!!SampleActualRank: 23
!!!SampleID#: 0690
!!!SampleTargetRank: 22
